src/assets/duotone/Theta.svg

<?xml version="1.0" encoding="UTF-8"?>
<svg width="24" height="24" viewBox="0 0 24 24" xmlns="http://www.w3.org/2000/svg">
 <path d="m16.19 2h-8.37c-3.65 0-5.82 2.17-5.82 5.81v8.37c0 3.64 2.17 5.81 5.81 5.81h8.37c3.64 0 5.81-2.17 5.81-5.81v-8.37c0.01-3.64-2.16-5.81-5.8-5.81z" opacity=".4"/>
 <path d="m15.15 6h-6.3c-1.02 0-1.85 0.83-1.85 1.85v8.3c0 1.02 0.82998 1.85 1.85 1.85h6.3c1.02 0 1.85-0.83 1.85-1.85v-8.3c0-1.02-0.83-1.85-1.85-1.85zm-1.15 8.25h-1.25v1.25c0 0.41-0.34 0.75-0.75 0.75s-0.75-0.34-0.75-0.75v-1.25h-1.25c-0.41 0-0.75-0.34-0.75-0.75s0.34-0.75 0.75-0.75h4c0.41 0 0.75 0.34 0.75 0.75s-0.34 0.75-0.75 0.75zm0-3h-4c-0.41 0-0.75-0.34-0.75-0.75s0.34-0.75 0.75-0.75h1.25v-1.25c0-0.41 0.34-0.75 0.75-0.75s0.75 0.34 0.75 0.75v1.25h1.25c0.41 0 0.75 0.34 0.75 0.75s-0.34 0.75-0.75 0.75z"/>
</svg>

<svg width="24" height="24" viewBox="0 0 24 24"  xmlns="http://www.w3.org/2000/svg">
<path opacity="0.4" d="M16.19 2H7.82001C4.17001 2 2 4.17 2 7.81V16.18C2 19.82 4.17 21.99 7.81 21.99H16.18C19.82 21.99 21.99 19.82 21.99 16.18V7.81C22 4.17 19.83 2 16.19 2Z" />
<path d="M15.15 6H8.84998C7.82998 6 7 6.83 7 7.85V16.15C7 17.17 7.82998 18 8.84998 18H15.15C16.17 18 17 17.17 17 16.15V7.85C17 6.83 16.17 6 15.15 6ZM14 14.25H12.75V15.5C12.75 15.91 12.41 16.25 12 16.25C11.59 16.25 11.25 15.91 11.25 15.5V14.25H10C9.59 14.25 9.25 13.91 9.25 13.5C9.25 13.09 9.59 12.75 10 12.75H14C14.41 12.75 14.75 13.09 14.75 13.5C14.75 13.91 14.41 14.25 14 14.25ZM14 11.25H10C9.59 11.25 9.25 10.91 9.25 10.5C9.25 10.09 9.59 9.75 10 9.75H11.25V8.5C11.25 8.09 11.59 7.75 12 7.75C12.41 7.75 12.75 8.09 12.75 8.5V9.75H14C14.41 9.75 14.75 10.09 14.75 10.5C14.75 10.91 14.41 11.25 14 11.25Z" />
</svg>
